!!!OTL: Hentzen Lied wider die Evangelischen. (1545.) / (Herzog Heinrichs von Braunschweig Lied.)
!!!ARE: Europa, Mitteleuropa, Deutschland
!!!SCT: A0399B
!!!OPR: 399a. Mahnlied.
!!!TXL:@@DE
!!!YEM: Copyright 1995, estate of Helmut Schaffrath.
**kern	**text
*ICvox	*
*Ivox	*
*M4/2	*
*met(c)	*
*k[b-]	*
*d:dor	*
!LO:TX:a:t=dor.	!
{2d	Bitt
=1	=1
2d	Got,
2d	ir
2f	Chri-
2d	-ſten
=2	=2
(4f	al-
4e	.
4f	.
4g)	.
2a}	-le
{2e	im
=3	=3
2f	heil-
2a	-gen
(4g	key-
4f)	.
2g	-ſer-
=4	=4
1a	-thum,}
2r}	.
{2d	Daß
=1	=1
2d	der
2d	Thurm
2f	bald
2d	umb-
=2	=2
(4f	-fal-
4e	.
4f	.
4g)	.
2a}	-le,
{2e	er-
=3	=3
2f	-bawt
2a	mit
(4g	ho-
4f)	.
2g	-hem
=4	=4
1a	rhumb,}
2r}	.
{2a	Auff
=5	=5
2a	den
2a	ſo
2a	hart
2a	ver-
=6	=6
1g	-traw-
2e}	-en,
{2a	wol_len
=7	=7
2g	ʒu-
2f	-flucht
2e	ʒu
2d	ihm
=8	=8
1c	han,
2r}	.
{2e	die
=9	=9
2g	auff
2a	ge-
2a	-ſchwetʒ
2d	nur
=10	=10
(4f	baw-
4e	.
4f	.
4g)	.
2a}	-en,
{2a	kein
=11	=11
2a	gut
2g	mer
2f	wol-
2e	-len
=12	=12
1d	thun.
2r}	.
==	==
!!!GTL: Einige historisch-politische Lieder
!!!AGN: Romanze, Ballade, Lied, religioeses Lied
!! Dresdner Codex M. 53, vor 1560.
!!!ONB: ESAC (Essen Associative Code) Database: ALTDEU
!!!AMT: simple quadruple
!!!AIN: vox
!!!EED: Helmut Schaffrath
!!!EEV: 1.0
!!!AMD: Dorian
!!!URL-scan: https://rosdok.uni-rostock.de/mcrviewer/recordIdentifier/rosdok_ppn738218359/iview2/phys_0571.iview2?x=104.18348948774928&y=2810.341826842632&scale=0.7083010262257697&rotation=0&layout=singlePageLayout
!!!ENC: Anna Maria Matuszewska
!!!EEV: 2024/15/03
*-	*-
